static/images/hero/sql-border.svg

<svg width="246" height="194" viewBox="0 0 246 194" fill="none" xmlns="http://www.w3.org/2000/svg">
<path d="M245.719 88.6233C245.72 93.9204 245.711 98.8862 245.7 105.158C245.7 105.161 245.7 105.165 245.7 105.168C245.699 106.064 245.697 106.987 245.696 107.942C245.683 115.625 245.667 125.609 245.659 140.663C245.649 157.297 245.614 170.504 245.581 178.568C245.574 180.072 245.571 181.629 245.568 185.555C245.566 187.522 245.565 190.018 245.563 193.325L245.563 193.669L245.219 193.669C244.196 193.668 243.095 193.668 241.908 193.667C239.236 193.666 236.126 193.664 232.485 193.662C220.432 193.655 201.543 193.657 184.137 193.659C173.573 193.661 163.554 193.662 155.944 193.661C144.814 193.659 134.075 193.653 122.4 193.646C111.708 193.64 100.231 193.633 86.9513 193.629C76.7621 193.626 66.8627 193.601 56.8027 193.573C55.5224 193.569 54.2366 193.565 52.9497 193.562C44.0722 193.536 34.9972 193.51 25.1837 193.496C16.1509 193.482 8.06032 193.478 0.21936 193.48L0.0652595 193.48L0.0650832 193.325C0.063875 185.982 0.0582992 178.857 0.0524494 171.383C0.0477185 165.338 0.0428003 159.063 0.0398758 152.258C0.0352509 141.496 0.0361848 126.025 0.0374953 110.49C0.037607 109.167 0.0376862 107.842 0.0378005 106.521C0.0378005 106.514 0.0378005 106.507 0.0378005 106.501C0.0390313 92.2804 0.0402392 78.324 0.0375564 68.0846C0.0332928 51.8136 0.023218 45.6918 0.0147896 40.5859C0.0116214 38.6666 0.00866266 36.8897 0.00636654 34.7714C-0.00190203 27.1422 -0.000366777 15.6254 0.0011784 3.95108C0.0011784 3.90654 0.0011784 3.86197 0.0011784 3.81741C0.00143482 1.88 0.0296706 0.316269 0.0642295 0.325363C0.0987915 0.334689 0.126621 1.91322 0.126365 3.85083C0.125547 10.0346 0.124755 16.0688 0.125327 21.4715C0.155022 21.7516 0.177501 23.2065 0.17727 24.9502C0.176698 29.3155 0.19907 42.6854 0.235621 63.6101C0.241034 62.1767 0.246301 60.9762 0.251308 59.9242C0.257185 58.6894 0.262238 57.7434 0.266567 56.9301C0.275589 55.2348 0.281543 54.1068 0.285915 52.1047C0.290886 47.4673 0.29192 40.1789 0.292935 32.5091C0.2932 30.5724 0.32138 29.0084 0.355925 29.017C0.390479 29.0264 0.418304 30.6056 0.41806 32.5425C0.41806 32.5804 0.41806 32.6182 0.41806 32.6561C0.417055 40.2525 0.416035 47.7749 0.410736 52.6193C0.409388 53.8517 0.407792 54.9133 0.406341 55.7103C0.405182 56.3476 0.403608 57.143 0.40158 57.585C0.401311 57.6437 0.400766 57.7556 0.399932 57.8891C0.399912 57.8914 0.399892 57.8936 0.399871 57.8958C0.399411 57.9704 0.397078 58.3515 0.391998 58.7579C0.390971 58.84 0.38868 59.0185 0.384978 59.2258C0.384694 59.2792 0.384409 59.3327 0.384124 59.3862C0.38017 60.1316 0.37614 60.8921 0.372222 61.7153C0.356924 64.9295 0.337644 70.0205 0.317227 80.6226C0.29845 90.3736 0.290031 106.858 0.289883 127.426C0.292471 126.037 0.294981 124.644 0.29739 123.252C0.303447 119.75 0.30897 116.232 0.314237 112.713C0.316248 111.365 0.318218 110.035 0.320157 108.679C0.323292 106.498 0.326369 104.31 0.329374 102.123C0.331407 100.645 0.333406 99.1642 0.335416 97.6852C0.335416 97.6818 0.335416 97.6785 0.335416 97.6751C0.338207 95.6221 0.341014 93.5639 0.343901 91.4897C0.344975 90.7637 0.346006 90.0465 0.347013 89.3343C0.351021 86.4996 0.354912 83.7149 0.362456 80.5089C0.363705 80.1191 0.365321 79.6955 0.366667 79.3794C0.368086 79.0397 0.369531 78.7127 0.371001 78.4037C0.372298 78.131 0.373618 77.871 0.374846 77.6217C0.375009 77.5883 0.375172 77.5549 0.375335 77.5215C0.376709 77.2425 0.377979 76.9758 0.37918 76.7195C0.380379 76.4636 0.381534 76.2171 0.382537 75.9743C0.382537 75.972 0.382537 75.9698 0.382537 75.9676C0.383565 75.7139 0.384338 75.5213 0.385222 75.2525C0.386331 74.9149 0.387184 74.6248 0.38803 74.2734C0.388853 73.9334 0.389586 73.5788 0.390228 73.2207C0.390868 72.8627 0.391428 72.4981 0.391937 72.128C0.392446 71.7577 0.392919 71.3813 0.39334 71.0019C0.393761 70.6228 0.394129 70.2386 0.3945 69.8523C0.394871 69.4659 0.395243 69.0752 0.395599 68.6827C0.396424 67.779 0.403358 66.9127 0.415131 66.2767C0.426904 65.641 0.442474 65.2869 0.458589 65.2909C0.474706 65.2953 0.490195 65.6581 0.501803 66.3001C0.513405 66.9424 0.520137 67.8121 0.520724 68.7162C0.520882 68.9623 0.52106 69.2097 0.521213 69.458C0.521304 69.6054 0.52137 69.7543 0.521457 69.9025C0.52169 70.301 0.521951 70.7036 0.522128 71.1088C0.522305 71.5136 0.522421 71.9221 0.522494 72.3352C0.522567 72.7494 0.522591 73.1693 0.522494 73.595C0.522397 74.0198 0.52219 74.4539 0.521823 74.8949C0.521477 75.3252 0.520871 75.816 0.520114 76.255C0.519582 76.5759 0.518674 76.9712 0.517856 77.3009C0.517 77.645 0.516044 77.9837 0.515048 78.3101C0.51405 78.6373 0.512992 78.9537 0.511996 79.2558C0.511894 79.2881 0.511793 79.3204 0.511691 79.3527C0.51081 79.6198 0.50995 79.8776 0.509188 80.1213C0.508336 80.3937 0.507611 80.6516 0.506991 80.8966C0.506295 81.1664 0.506019 81.3304 0.505709 81.5315C0.503698 84.1903 0.504112 87.477 0.504489 90.6108C0.504536 91.0046 0.504569 91.3963 0.504611 91.7838C0.504905 93.8422 0.505275 95.8963 0.505648 97.9492C0.50592 99.4411 0.5062 100.935 0.506442 102.43C0.5068 104.631 0.507085 106.839 0.507296 109.044C0.507419 110.413 0.507499 111.757 0.50754 113.124C0.507661 116.691 0.507492 120.27 0.506747 123.854C0.506 127.433 0.504696 131.034 0.502474 134.637C0.50026 138.227 0.496948 141.957 0.491915 145.558C0.488153 148.206 0.481595 150.92 0.474825 153.431C0.471178 154.781 0.467479 156.102 0.463777 157.404C0.463757 157.409 0.463736 157.413 0.463716 157.418C0.460467 158.561 0.45725 159.689 0.454194 160.809C0.447613 163.212 0.441746 165.571 0.436799 167.931C0.43185 170.286 0.427813 172.632 0.424713 174.995C0.421644 177.34 0.419424 179.725 0.41806 182.086C0.416685 184.459 0.416126 186.789 0.416168 189.237C0.41622 190.601 0.41645 191.961 0.416799 193.325L0.21936 193.128C2.07459 193.127 3.93748 193.127 5.82872 193.126C9.0865 193.125 12.3705 193.123 15.6633 193.121C16.8142 193.121 17.9673 193.12 19.1219 193.119C19.1264 193.119 19.1308 193.119 19.1353 193.119C21.271 193.118 23.4119 193.117 25.5546 193.116C28.8627 193.114 32.1799 193.113 35.5095 193.111C38.8384 193.11 42.1879 193.109 45.5546 193.109C48.9217 193.108 52.3798 193.109 55.8537 193.111C58.9527 193.112 62.0762 193.115 65.1302 193.117C65.9366 193.118 66.7431 193.118 67.5495 193.119C71.3761 193.122 75.0807 193.124 78.7442 193.124C82.4049 193.125 86.0631 193.124 89.755 193.121C93.4355 193.118 97.1625 193.114 100.92 193.109C104.693 193.104 108.418 193.099 112.218 193.093C115.989 193.086 119.778 193.08 123.613 193.073C125.745 193.069 128.013 193.065 130.156 193.062C132.32 193.059 134.47 193.056 136.592 193.054C137.453 193.053 138.311 193.052 139.162 193.051C140.403 193.049 141.633 193.048 142.844 193.047C144.888 193.044 146.882 193.041 148.819 193.038C150.755 193.035 152.635 193.031 154.45 193.027C156.329 193.022 157.877 193.018 159.73 193.011C164.241 192.998 167.036 192.994 170.142 192.99C170.754 192.989 171.379 192.988 172.03 192.987C175.755 192.982 179.476 192.978 183.148 192.975C186.856 192.972 190.506 192.97 194.202 192.969C197.863 192.968 201.551 192.968 205.223 192.968C208.89 192.969 212.551 192.97 216.221 192.972C219.888 192.974 223.631 192.977 227.225 192.98C229.302 192.982 231.508 192.985 233.557 192.987C235.036 192.989 236.493 192.991 237.922 192.993C238.505 192.994 239.085 192.995 239.659 192.995C241.567 192.998 243.424 193 245.219 193.002L244.896 193.325C244.896 193.257 244.896 193.189 244.897 193.121C244.898 191.261 244.9 189.462 244.9 187.701C244.901 185.937 244.9 184.211 244.899 182.484C244.898 180.695 244.896 179.208 244.893 177.308C244.891 176.071 244.889 174.858 244.886 173.649C244.883 171.839 244.88 170.042 244.877 168.232C244.873 166.424 244.87 164.639 244.866 162.845C244.865 162.269 244.864 161.659 244.862 161.081C244.859 159.293 244.855 157.526 244.851 155.761C244.847 153.999 244.843 152.253 244.838 150.515C244.834 148.769 244.829 147.052 244.824 145.302C244.815 142.326 244.811 139.478 244.808 136.984C244.806 134.46 244.804 132.102 244.803 129.806C244.803 129.376 244.802 128.946 244.802 128.516C244.801 126.665 244.8 124.843 244.799 123.049C244.797 120.838 244.795 118.667 244.793 116.49C244.791 114.331 244.788 112.15 244.785 110.003C244.782 107.836 244.779 105.764 244.775 103.531C244.771 101.322 244.766 99.0785 244.76 96.6199C244.755 94.1836 244.749 91.6269 244.744 89.0377C244.739 86.4511 244.734 83.8235 244.731 81.2148C244.728 78.6008 244.725 75.9781 244.723 73.3919C244.721 70.7919 244.72 68.2072 244.72 65.6359C244.719 63.0704 244.719 60.4204 244.72 57.94C244.721 53.9237 244.722 49.9254 244.724 45.92C244.725 41.9367 244.727 37.9409 244.729 33.9534C244.731 29.9732 244.732 25.9885 244.734 22.0103C244.736 18.0302 244.738 14.0507 244.74 10.0772C244.741 9.19829 244.741 8.31943 244.742 7.44057C244.743 5.0667 244.744 2.69306 244.745 0.325317L245.219 0.799399C244.501 0.799037 243.782 0.798676 243.065 0.798317C243.044 0.798297 243.022 0.798276 243.001 0.798256C239.035 0.796296 235.141 0.79439 231.209 0.792763C229.765 0.792181 228.378 0.791633 226.968 0.791176C225.557 0.790721 224.172 0.79035 222.774 0.790077C221.375 0.789806 219.984 0.789654 218.614 0.78965C217.229 0.789655 215.879 0.789796 214.517 0.790199C213.268 0.790552 212.028 0.791187 210.674 0.791847C210.55 0.791908 210.427 0.791969 210.303 0.79203C208.821 0.792757 207.135 0.793218 205.568 0.792885C201.417 0.791899 197.372 0.791434 193.254 0.791481C189.133 0.791526 185.022 0.792065 180.876 0.792824C179.257 0.793116 177.631 0.793476 176.004 0.7938C173.473 0.794305 170.933 0.794811 168.385 0.795204C164.193 0.795858 159.992 0.796155 155.763 0.795754C151.551 0.795353 147.312 0.794225 143.092 0.792274C138.875 0.790332 134.621 0.78758 130.423 0.784096C125.746 0.780197 121.096 0.775892 116.425 0.7714C111.762 0.766902 107.096 0.762192 102.45 0.757361C97.7879 0.752525 93.1374 0.747558 88.4854 0.742468C83.8306 0.737377 79.1789 0.732165 74.5239 0.726843C71.7379 0.723656 68.9528 0.72041 66.1663 0.717138C64.6921 0.720075 63.2787 0.722953 61.9191 0.725683C51.8726 0.745855 44.6086 0.760404 35.0252 0.770423C34.1074 0.77194 33.3607 0.774102 32.4521 0.77671C32.2788 0.777208 32.0949 0.777706 31.9075 0.778236C30.7201 0.781594 29.3566 0.785108 27.4597 0.78733C23.6756 0.791764 17.8755 0.7908 10.3804 0.761573C8.48703 0.75419 7.28224 0.720863 7.69031 0.687108C7.97719 0.663432 8.98278 0.645838 10.2099 0.639987C7.94272 0.635971 5.68161 0.63177 3.42633 0.627597C2.52613 0.625925 1.68101 0.618158 1.08047 0.605807C0.480272 0.593452 0.173159 0.577583 0.225001 0.561494C0.276859 0.545401 0.685417 0.530306 1.36117 0.519318C2.03669 0.508341 2.92301 0.502395 3.82733 0.502654C6.22633 0.503371 8.61722 0.504096 11.0086 0.504608C13.402 0.505126 15.784 0.505428 18.1732 0.505584C20.5616 0.505742 22.9492 0.505722 25.3444 0.505584C27.7302 0.50544 30.1208 0.505208 32.5156 0.504852C34.9257 0.504504 37.2904 0.504017 39.6936 0.503509C41.1334 0.503199 42.5906 0.502892 44.021 0.502532C44.5542 0.502409 45.0745 0.50224 45.595 0.502105C46.0204 0.501995 46.448 0.501906 46.8882 0.5018C51.5186 0.500574 56.1935 0.499201 60.8263 0.49771C65.4811 0.496228 70.1313 0.49466 74.7812 0.493011C79.4337 0.491362 84.0822 0.489606 88.7327 0.487823C93.381 0.486038 98.0265 0.484193 102.681 0.482268C107.318 0.480336 111.974 0.478361 116.619 0.476225C120.212 0.474575 123.774 0.472803 127.342 0.470915C128.747 0.467687 130.137 0.464636 131.51 0.461699C135.503 0.453149 139.503 0.44193 143.443 0.430814C136.43 0.436341 130.797 0.444973 125.434 0.453215C124.715 0.45432 124.001 0.455429 123.289 0.456511C116.02 0.467551 108.998 0.476897 99.5531 0.474822C72.6907 0.468918 57.115 0.46461 47.4095 0.456572C37.7058 0.448534 33.5364 0.436618 29.6451 0.41293C24.1467 0.379455 13.5344 0.360414 8.20159 0.359706C6.26439 0.35945 4.70075 0.331208 4.70953 0.296655C4.71889 0.262093 6.29746 0.234263 8.23501 0.234519C13.866 0.235266 25.3495 0.254619 31.8941 0.294458C34.809 0.312204 38.161 0.323653 47.7169 0.331568C57.2739 0.339484 72.706 0.34372 99.6199 0.349635C108.725 0.351636 115.483 0.342735 122.674 0.331812C123.379 0.330741 124.09 0.329618 124.806 0.328516C124.811 0.328516 124.815 0.328516 124.819 0.328516C131.426 0.318361 138.618 0.307292 148.318 0.302392C170.675 0.2911 200.748 0.269209 207.887 0.256859C209.288 0.254435 210.642 0.251713 212.071 0.248863C217.554 0.237923 224.174 0.224727 239.092 0.215964C240.963 0.214865 243.019 0.214029 245.219 0.213421L245.331 0.213293L245.331 0.325317C245.332 1.96011 245.332 3.67454 245.332 5.45227C245.349 11.7104 245.365 17.7864 245.374 23.0696C245.382 27.6294 245.397 31.8341 245.413 35.9083C245.418 37.0813 245.422 38.2619 245.427 39.4405C245.439 42.2832 245.451 45.1271 245.46 47.8983C245.467 50.1074 245.475 52.4208 245.485 54.8657C245.518 63.7719 245.558 74.4448 245.558 88.3526C245.559 103.096 245.552 115.718 245.545 126.605C245.553 118.61 245.562 112.438 245.571 107.297C245.573 106.327 245.574 105.398 245.576 104.503C245.587 98.1841 245.595 93.5902 245.594 88.6667C245.593 65.1503 245.582 56.33 245.551 46.3778C245.543 43.7576 245.533 40.867 245.521 37.7529C245.498 31.529 245.471 24.4098 245.456 16.7605C245.446 11.6682 245.433 6.1449 245.418 0.325317L245.418 0.126649L245.219 0.126876C242.897 0.132828 240.527 0.139006 238.119 0.145283C238.116 0.145283 238.112 0.145283 238.109 0.145283C236.459 0.149584 234.79 0.15393 233.107 0.158284C222.841 0.184836 212.045 0.211534 201.534 0.228355C200.41 0.230154 199.064 0.232635 197.518 0.235496C188.594 0.252012 172.929 0.281005 153.799 0.262413C149.597 0.258329 145.231 0.249676 140.248 0.239769C138.73 0.236751 137.155 0.23358 135.51 0.23043C128.407 0.216829 119.778 0.20238 108.288 0.193686C98.8058 0.18651 87.2492 0.18307 75.249 0.179464C69.338 0.177688 63.3194 0.175843 57.3878 0.173544C39.4704 0.166598 23.0485 0.155582 6.65773 0.144551C6.65439 0.144551 6.65105 0.144551 6.64771 0.144551C4.71134 0.143248 3.19455 0.114146 3.26259 0.0796078C3.33133 0.0450872 4.95618 0.0181326 6.89165 0.0194255C23.2921 0.0304627 39.6638 0.0414958 57.5214 0.048418C63.3629 0.0506823 69.3344 0.0525073 75.2223 0.0542775C87.2809 0.0579028 98.9981 0.0613789 108.569 0.0686212C120.254 0.0774642 129.041 0.092188 136.241 0.105976C137.975 0.109296 139.606 0.112544 141.154 0.11562C146.081 0.125412 150.177 0.133597 154.163 0.137471C172.686 0.155473 187.759 0.127632 196.716 0.111103C198.304 0.108171 199.701 0.10562 200.889 0.103717C211.194 0.0872264 221.825 0.0609672 232.081 0.0344405C233.745 0.0301368 235.4 0.0258443 237.043 0.0215617C237.046 0.0215414 237.05 0.021521 237.053 0.0215007C239.817 0.0142966 242.545 0.00718454 245.219 0.000372946L245.544 2.44379e-06L245.544 0.325317C245.558 5.81973 245.571 11.0874 245.581 15.9685C245.595 23.3347 245.619 29.7588 245.642 35.768C245.654 38.9925 245.665 42.0979 245.675 45.1648C245.707 55.7228 245.718 65.0313 245.719 88.6233ZM13.7154 0.64603C18.3755 0.661715 22.1725 0.665022 25.0002 0.663975C22.5988 0.660412 20.2031 0.656674 17.8056 0.652805C16.441 0.650604 15.078 0.648347 13.7154 0.64603ZM245.207 6.0237C245.205 5.26861 245.203 4.50791 245.201 3.74467C245.202 5.85183 245.203 7.95963 245.204 10.0638C245.205 12.6476 245.206 15.2309 245.207 17.8131C245.207 13.7072 245.208 9.7285 245.207 6.0237ZM245.433 88.3861C245.433 75.27 245.396 65.4685 245.363 56.6301C245.354 54.0848 245.344 51.6167 245.336 49.1748C245.333 48.1622 245.33 47.1504 245.326 46.1305C245.324 52.0704 245.322 57.5305 245.32 62.0002C245.315 75.3377 245.304 82.9286 245.295 89.5991C245.292 91.529 245.289 93.3839 245.287 95.2766C245.291 96.8426 245.296 98.4687 245.299 100.112C245.304 102.413 245.309 104.9 245.314 107.267C245.318 109.642 245.322 112.057 245.325 114.428C245.328 116.819 245.331 119.187 245.333 121.546C245.335 123.764 245.337 125.976 245.339 128.115C245.339 128.238 245.339 128.36 245.339 128.483C245.341 130.744 245.343 132.944 245.345 134.966C245.348 137.023 245.351 138.734 245.356 140.252C245.362 142.148 245.367 144.093 245.372 146.017C245.377 147.942 245.382 149.859 245.387 151.771C245.391 153.687 245.395 155.583 245.399 157.485C245.401 158.1 245.402 158.743 245.403 159.353C245.404 159.634 245.404 159.915 245.405 160.195C245.405 156.475 245.406 152.612 245.407 148.62C245.409 142.852 245.413 136.695 245.417 129.903C245.425 118.316 245.434 104.883 245.433 88.3861ZM221.955 193.522C223.573 193.522 225.941 193.521 228.996 193.52C229.718 193.519 230.48 193.519 231.278 193.519C231.26 193.519 231.24 193.519 231.222 193.518C229.243 193.515 227.416 193.513 225.444 193.51C221.929 193.505 218.514 193.501 215.065 193.498C211.602 193.495 208.149 193.492 204.692 193.49C201.23 193.488 197.758 193.486 194.316 193.485C190.841 193.484 187.415 193.484 183.957 193.484C182.855 193.484 181.75 193.485 180.645 193.485C183.112 193.488 185.673 193.491 188.378 193.493C190.538 193.496 192.792 193.498 195.162 193.501C196.068 193.502 197.166 193.503 198.446 193.505C203.521 193.513 211.484 193.524 221.955 193.522ZM153.056 193.519C152.254 193.52 151.456 193.521 150.667 193.522C148.422 193.523 146.233 193.524 144.087 193.525C142.58 193.526 141.091 193.526 139.623 193.526C139.003 193.527 138.385 193.527 137.772 193.527C136.745 193.527 135.726 193.528 134.714 193.528C141.81 193.532 148.748 193.535 155.977 193.536C156.072 193.536 156.168 193.536 156.264 193.536C155.17 193.53 154.101 193.525 153.056 193.519Z" fill="#B8B8B8"/>
</svg>

<svg xmlns="http://www.w3.org/2000/svg" width="246" height="194" fill="none" viewBox="0 0 246 194"><path fill="#b8b8b8" d="M245.719 88.623c.001 5.297-.008 10.263-.019 16.535v.01l-.004 2.774c-.013 7.683-.029 17.667-.037 32.721-.01 16.634-.045 29.841-.078 37.905-.007 1.504-.01 3.061-.013 6.987l-.005 7.77v.344h-.344l-3.311-.002-9.423-.005c-12.053-.007-30.942-.005-48.348-.003-10.564.002-20.583.003-28.193.002-11.13-.002-21.869-.008-33.544-.015-10.692-.006-22.169-.013-35.449-.017a12004 12004 0 0 1-34.001-.067c-8.878-.026-17.953-.052-27.766-.066-9.033-.014-17.124-.018-24.965-.016H.065v-.155c-.001-7.343-.007-14.468-.013-21.942-.004-6.045-.01-12.32-.012-19.125-.005-10.762-.004-26.233-.003-41.768v-3.989c.002-14.22.003-28.177 0-38.416-.004-16.271-.014-22.393-.022-27.5l-.009-5.814C-.002 27.142 0 15.625.001 3.951v-.134C.001 1.88.03.317.064.325.1.335.127 1.913.126 3.851v17.62c.029.28.052 1.735.051 3.48 0 4.365.022 17.734.059 38.66l.015-3.687.016-2.994c.009-1.695.015-2.823.019-4.825.005-4.638.006-11.926.007-19.596 0-1.937.028-3.5.063-3.492.034.01.062 1.589.062 3.525v.114A24780 24780 0 0 1 .406 55.71L.4 57.896a88 88 0 0 1-.015 1.33v.16l-.013 2.33C.357 64.93.338 70.02.317 80.622.298 90.373.29 106.858.29 127.426a31495 31495 0 0 0 .04-25.303l.005-4.438v-.01l.012-8.34c.004-2.835.008-5.62.015-8.826l.009-2.105.004-.782v-.1l.004-.803.004-.745v-.006a849 849 0 0 0 .009-3.84l.001-1.126.002-1.15v-1.17c.001-.903.008-1.77.02-2.405.012-.636.027-.99.044-.986s.031.367.043 1.01c.011.641.018 1.511.019 2.415v1.187l.001 1.206-.002 5.146-.005 2.055-.003.946v.097l-.003.768-.003 1.41c-.002 2.66-.002 5.946-.002 9.08v1.173l.002 6.165v25.905a26447 26447 0 0 1-.014 21.704 6250 6250 0 0 1-.028 11.846v.014l-.01 3.391a11058 11058 0 0 0-.036 21.277 11863 11863 0 0 0-.001 11.239l-.198-.197 5.61-.002 9.834-.005 3.459-.002h.013l6.42-.003 9.955-.005a33383 33383 0 0 1 20.344 0c3.099.001 6.222.004 9.276.006l2.42.002a14269 14269 0 0 0 33.37-.01l11.298-.016 11.395-.02 6.543-.011 6.436-.008 2.57-.003 3.682-.004 11.606-.02c1.879-.005 3.427-.009 5.28-.016a5800 5800 0 0 1 12.3-.024 21208 21208 0 0 1 22.172-.018l11.021-.001a40363 40363 0 0 1 22.002.012l6.332.007 4.365.006 1.737.002 5.56.007-.323.323.001-.204.003-5.42c.001-1.764 0-3.49-.001-5.217a4771 4771 0 0 0-.013-8.835l-.009-5.417-.011-5.387-.004-1.764a9006 9006 0 0 0-.024-10.566l-.014-5.213c-.009-2.976-.013-5.824-.016-8.318l-.005-7.178-.001-1.29-.003-5.467-.006-6.559a13823 13823 0 0 0-.033-19.87l-.016-7.582a10016 10016 0 0 1-.021-15.646l-.003-7.756V57.94a47986 47986 0 0 1 .009-23.987l.005-11.943.006-11.933.002-2.636.003-7.116.474.474h-2.218l-24.387-.01-4.097.001-3.843.002h-5.106a49109 49109 0 0 0-24.692 0l-4.872.002-20.241.002A34577 34577 0 0 1 116.425.77 185959 185959 0 0 1 66.166.717L61.92.726C51.873.746 44.61.76 35.025.77l-2.573.007-.544.001c-1.188.004-2.551.007-4.448.01-3.784.004-9.585.003-17.08-.026C8.487.754 7.282.72 7.69.687 7.977.663 8.983.646 10.21.64L3.426.628C2.526.626 1.681.618 1.08.606.48.593.173.578.225.56S.685.531 1.361.52 2.923.502 3.827.503l7.182.002A47341 47341 0 0 0 39.694.504L44.02.503h1.574l1.293-.001a245017 245017 0 0 0 55.793-.02l24.661-.011 4.168-.01c3.993-.008 7.993-.02 11.933-.03-7.013.005-12.646.014-18.009.022l-2.145.004c-7.269.01-14.291.02-23.736.018C72.691.469 57.115.465 47.41.457S33.536.437 29.645.413C24.147.379 13.535.36 8.202.36 6.264.36 4.7.33 4.71.297 4.719.262 6.297.234 8.235.235c5.631 0 17.115.02 23.66.06 2.914.017 6.266.029 15.822.037C57.274.339 72.706.344 99.62.35c9.105.002 15.863-.007 23.054-.018l2.132-.003h.013c6.607-.01 13.799-.022 23.499-.027 22.357-.01 52.43-.033 59.569-.045l4.184-.008a16590 16590 0 0 1 33.148-.036h.112v.112l.001 5.127c.017 6.258.033 12.334.042 17.618.008 4.56.023 8.764.039 12.838l.014 3.532c.012 2.843.024 5.687.033 8.458.007 2.21.015 4.523.025 6.968.033 8.906.073 19.579.073 33.487.001 14.743-.006 27.365-.013 38.252.008-7.995.017-14.167.026-19.308l.005-2.794c.011-6.319.019-10.913.018-15.836-.001-23.517-.012-32.337-.043-42.29-.008-2.62-.018-5.51-.03-8.624-.023-6.224-.05-13.343-.065-20.992-.01-5.093-.023-10.616-.038-16.436V.127h-.199l-7.1.018h-.01l-5.002.013a32339 32339 0 0 1-35.589.077c-8.924.017-24.589.046-43.719.027-4.202-.004-8.568-.012-13.551-.022L135.51.23c-7.103-.013-15.732-.028-27.222-.036C98.806.187 87.249.184 75.249.179L57.388.174C39.47.167 23.048.156 6.658.144h-.01C4.71.145 3.195.115 3.263.08 3.33.045 4.956.018 6.892.02c16.4.01 32.772.021 50.63.028 5.84.003 11.812.005 17.7.006C87.281.058 98.998.061 108.57.07c11.685.008 20.472.023 27.672.037l4.913.01c4.927.01 9.023.018 13.009.021 18.523.018 33.596-.01 42.553-.026l4.173-.007a31968 31968 0 0 0 36.154-.082h.01L245.219 0h.325v.325c.014 5.495.027 10.762.037 15.644.014 7.366.038 13.79.061 19.799l.033 9.397c.032 10.558.043 19.866.044 43.458M13.715.646c4.66.016 8.458.019 11.285.018zm231.492 5.378-.006-2.28.003 6.32.003 7.75zm.226 82.362c0-13.116-.037-22.917-.07-31.756l-.027-7.455-.01-3.044L245.32 62c-.005 13.337-.016 20.928-.025 27.598l-.008 5.678c.004 1.566.009 3.192.012 4.835l.015 7.155.011 7.161.008 7.118.006 6.569v.368l.006 6.483c.003 2.057.006 3.768.011 5.286l.016 5.765.015 5.754.012 5.714.004 1.868.002.842.002-11.575c.002-5.768.006-11.925.01-18.717.008-11.587.017-25.02.016-41.517m-23.478 105.136 7.041-.002 2.282-.001-.056-.001-5.778-.008-10.379-.012-10.373-.008-10.376-.005-10.359-.001-3.312.001 7.733.008 6.784.008 3.284.004c5.075.008 13.038.019 23.509.017m-68.899-.003-2.389.003-6.58.003-4.464.001-1.851.001-3.058.001c7.096.004 14.034.007 21.263.008h.287z"/></svg>
